packages/kaspersky-hexa-ui-icons/src/iconsSVGs/64x42/FlagCsa.svg

<svg xmlns="http://www.w3.org/2000/svg" width="64" height="42" fill="none" viewBox="0 0 64 42"><g clip-path="url(#a)"><rect width="64" height="42" fill="#fff" rx="5"/><path fill="#19bfbf" d="M0 0h64v42H0z"/><path fill="#fff" fill-rule="evenodd" d="M23.6001 33.6863c0-.0573.007-.1143.0209-.1698l1.3791-5.5164 1.3505-5.4022a.7.7 0 0 0-.015-.3912l-1.2438-3.7315a.7.7 0 0 0-.3511-.4048l-2.1537-1.0768a.7.7 0 0 1-.3869-.6261v-5.0022a.7.7 0 0 1 .0739-.313l1.3261-2.6522 1.2065-2.413a.7.7 0 0 1 .6261-.387h7.2674a.7.7 0 0 1 .7.7v1.4a.7.7 0 0 0 .7.7h1.4a.7.7 0 0 1 .7.7v1.6674c0 .2651.1498.5075.3869.6261l4.8261 2.413a.7.7 0 0 1 .387.6261v2.2022a.7.7 0 0 1-.0739.313l-1.243 2.4859a.7.7 0 0 1-.2378.2694l-3.8907 2.5938a.7.7 0 0 0-.2378.2694l-2.6337 5.2674a.7.7 0 0 1-.2378.2694l-3.8907 2.5938a.7.7 0 0 0-.2378.2694l-2.5234 5.0467a.7.7 0 0 1-.6261.387h-1.6673a.7.7 0 0 1-.7-.7z" clip-rule="evenodd"/></g><defs><clipPath id="a"><rect width="64" height="42" fill="#fff" rx="5"/></clipPath></defs></svg>

<svg width="64" height="42" viewBox="0 0 64 42" fill="none" xmlns="http://www.w3.org/2000/svg">
<g clip-path="url(#clip0_37941_2387)">
<rect width="64" height="42" rx="5" fill="white"/>
<rect width="64" height="42" fill="#19BFBF"/>
<path fill-rule="evenodd" clip-rule="evenodd" d="M23.6001 33.6863C23.6001 33.629 23.6071 33.572 23.621 33.5165L25.0001 28.0001L26.3506 22.5979C26.3829 22.4687 26.3777 22.333 26.3356 22.2067L25.0918 18.4752C25.0331 18.299 24.9068 18.1535 24.7407 18.0704L22.587 16.9936C22.3499 16.875 22.2001 16.6326 22.2001 16.3675V11.3653C22.2001 11.2567 22.2254 11.1495 22.274 11.0523L23.6001 8.4001L24.8066 5.98705C24.9252 5.7499 25.1676 5.6001 25.4327 5.6001H32.7001C33.0867 5.6001 33.4001 5.9135 33.4001 6.3001V7.7001C33.4001 8.0867 33.7135 8.4001 34.1001 8.4001H35.5001C35.8867 8.4001 36.2001 8.7135 36.2001 9.1001V10.7675C36.2001 11.0326 36.3499 11.275 36.587 11.3936L41.4131 13.8066C41.6503 13.9252 41.8001 14.1676 41.8001 14.4327V16.6349C41.8001 16.7435 41.7748 16.8507 41.7262 16.9479L40.4832 19.4338C40.4287 19.5428 40.3468 19.6356 40.2454 19.7032L36.3547 22.297C36.2534 22.3646 36.1714 22.4574 36.1169 22.5664L33.4832 27.8338C33.4287 27.9428 33.3468 28.0356 33.2454 28.1032L29.3547 30.697C29.2534 30.7646 29.1714 30.8574 29.1169 30.9664L26.5935 36.0131C26.475 36.2503 26.2326 36.4001 25.9674 36.4001H24.3001C23.9135 36.4001 23.6001 36.0867 23.6001 35.7001V33.6863Z" fill="white"/>
</g>
<defs>
<clipPath id="clip0_37941_2387">
<rect width="64" height="42" rx="5" fill="white"/>
</clipPath>
</defs>
</svg>
